X: 32749
T: Polska Efter Carl-Erik Berndt
R: waltz
M: 3/4
K: Amajor
A/B/c/d/ e2 a2|gb/g/ eg/e/ cB/c/|d>e fe cA|c2 B/A/G/A/ Bc/B/|
A/B/c/d/ ec/e/ a2|g/e/b/g/ eg/e/ cB/c/|d>e fe cA|c2 B/A/G/B/ A2:|[K: Amix]
|:A>B cA B=G|A>B cA BG|A>B cd ef|g>g f/e/d/f/ ef/e/|
A>B cA BG|A>B cA BG|A>B c/B/c/d/ ec|c/B/A/^G/ A4:|

